images/point.svg

<svg width="13" height="16" viewBox="0 0 13 16" fill="none" xmlns="http://www.w3.org/2000/svg">
<path d="M11.0962 11.3137L6.5 16L1.90378 11.3137C0.994747 10.3868 0.37569 9.20592 0.124893 7.92033C-0.125905 6.63474 0.00282161 5.30219 0.494793 4.0912C0.986765 2.8802 1.81989 1.84514 2.8888 1.11692C3.95772 0.388689 5.21443 0 6.5 0C7.78557 0 9.04228 0.388689 10.1112 1.11692C11.1801 1.84514 12.0132 2.8802 12.5052 4.0912C12.9972 5.30219 13.1259 6.63474 12.8751 7.92033C12.6243 9.20592 12.0053 10.3868 11.0962 11.3137ZM6.5 8.10012C6.88309 8.10012 7.25049 7.94495 7.52138 7.66876C7.79226 7.39256 7.94444 7.01796 7.94444 6.62736C7.94444 6.23676 7.79226 5.86216 7.52138 5.58596C7.25049 5.30977 6.88309 5.1546 6.5 5.1546C6.11691 5.1546 5.74951 5.30977 5.47862 5.58596C5.20774 5.86216 5.05556 6.23676 5.05556 6.62736C5.05556 7.01796 5.20774 7.39256 5.47862 7.66876C5.74951 7.94495 6.11691 8.10012 6.5 8.10012Z" fill="#EC5118"/>
</svg>

<svg width="13" height="16" fill="none" xmlns="http://www.w3.org/2000/svg"><path d="M11.0962 11.3137 6.5 16l-4.5962-4.6863C.9948 10.3868.3757 9.2059.1248 7.9203a6.7482 6.7482 0 0 1 .37-3.8291c.492-1.211 1.325-2.246 2.394-2.9743C3.9578.3887 5.2144 0 6.5 0s2.5423.3887 3.6112 1.117c1.0689.7281 1.902 1.7632 2.394 2.9742a6.7479 6.7479 0 0 1 .3699 3.8291c-.2508 1.2856-.8698 2.4665-1.7789 3.3934ZM6.5 8.1001c.383 0 .7505-.1551 1.0214-.4313a1.4876 1.4876 0 0 0 .423-1.0414c0-.3906-.1521-.7652-.423-1.0414A1.4305 1.4305 0 0 0 6.5 5.1546c-.383 0-.7505.1552-1.0214.4314a1.4876 1.4876 0 0 0-.423 1.0414c0 .3906.1521.7652.423 1.0414A1.4305 1.4305 0 0 0 6.5 8.1Z" fill="#EC5118"/></svg>
